X:1
T:On Christmas Day
B:Bushes and Briars (Vaughan Williams), Ed Roy Palmer, ISBN 1-86143-072-8
Z:Vaughan Williams
M:5/4
L:1/8
K:Gm
D2 |G2 A2 B2 c2 A2 |GA GF D4 d2 |d2 c2 A2 G2 E2 |
w:On Christ--mas day it hap - pen-ed so, Down in the mead_ ows
G2 Ac B4 c2 |
w:forth to_ plough; As
M:6/4
L:1/8
d3 edc B2 c2 de |d2 B2 A6 c3/2B/ |
w:we_ were_ plough_ ing_ on so fast Up_
M:5/4
L:1/8
GF D2 F2 G2 Ac |
w:comes_ sweet Je- sus his-
c2 B2 HG4 z2 |]
w:self at last
